packages/bezier-icons/icons/apple.svg

<svg width="24" height="24" viewBox="0 0 24 24" fill="none" xmlns="http://www.w3.org/2000/svg">
<path fill-rule="evenodd" clip-rule="evenodd" d="M15.832 1.00049C15.832 1.00049 16.104 2.62849 14.799 4.19749C13.405 5.87249 11.82 5.59749 11.82 5.59749C11.82 5.59749 11.523 4.28049 12.692 2.74049C14.006 1.00949 15.832 1.00049 15.832 1.00049ZM19.4688 7.80981C19.4688 7.80981 17.3058 8.91481 17.3058 11.5988C17.3058 14.6258 19.9998 15.6688 19.9998 15.6688C19.9998 15.6688 18.1168 20.9708 15.5728 20.9708C14.9959 20.9708 14.4822 20.7789 13.962 20.5844C13.4281 20.3849 12.8873 20.1828 12.2638 20.1828C11.5688 20.1828 10.8762 20.4338 10.2587 20.6576C9.76221 20.8375 9.31429 20.9998 8.9528 20.9998C6.6308 20.9998 3.6958 15.9708 3.6958 11.9288C3.6958 7.95181 6.1798 5.86581 8.5098 5.86581C9.39023 5.86581 10.1562 6.16065 10.7978 6.40764C11.2603 6.58565 11.6582 6.73881 11.9878 6.73881C12.2524 6.73881 12.6056 6.59647 13.0354 6.42323C13.7037 6.15387 14.5574 5.80981 15.5518 5.80981C18.3628 5.80981 19.4688 7.80981 19.4688 7.80981Z" fill="#313234"/>
</svg>

<svg xmlns="http://www.w3.org/2000/svg" width="24" height="24" fill="none" viewBox="0 0 24 24"><path fill="#313234" fill-rule="evenodd" d="M15.832 1s.272 1.628-1.033 3.197c-1.394 1.675-2.979 1.4-2.979 1.4s-.297-1.317.872-2.857C14.006 1.01 15.832 1 15.832 1m3.637 6.81s-2.163 1.105-2.163 3.789c0 3.027 2.694 4.07 2.694 4.07s-1.883 5.302-4.427 5.302c-.577 0-1.09-.192-1.611-.387-.534-.2-1.075-.401-1.698-.401-.695 0-1.388.25-2.005.475-.497.18-.945.342-1.306.342-2.322 0-5.257-5.03-5.257-9.071 0-3.977 2.484-6.063 4.814-6.063.88 0 1.646.295 2.288.542.462.178.86.33 1.19.33.264 0 .618-.142 1.047-.315.669-.27 1.522-.613 2.517-.613 2.81 0 3.917 2 3.917 2" clip-rule="evenodd"/></svg>
